src/lib/packages/icons/src/assets/line/arrow-up-circle.svg

<svg width="24" height="24" viewBox="0 0 24 24" fill="none" xmlns="http://www.w3.org/2000/svg">
<path d="M12 1.25C6.072 1.25 1.25 6.072 1.25 12C1.25 17.928 6.072 22.75 12 22.75C17.928 22.75 22.75 17.928 22.75 12C22.75 6.072 17.928 1.25 12 1.25ZM12 21.25C6.899 21.25 2.75 17.101 2.75 12C2.75 6.899 6.899 2.75 12 2.75C17.101 2.75 21.25 6.899 21.25 12C21.25 17.101 17.101 21.25 12 21.25ZM15.53 10.47C15.823 10.763 15.823 11.238 15.53 11.531C15.384 11.677 15.192 11.751 15 11.751C14.808 11.751 14.616 11.678 14.47 11.531L12.75 9.81104V16C12.75 16.414 12.414 16.75 12 16.75C11.586 16.75 11.25 16.414 11.25 16V9.81104L9.53003 11.531C9.23703 11.824 8.76199 11.824 8.46899 11.531C8.17599 11.238 8.17599 10.763 8.46899 10.47L11.469 7.46997C11.538 7.40097 11.6209 7.34611 11.7129 7.30811C11.8959 7.23211 12.1029 7.23211 12.2859 7.30811C12.3779 7.34611 12.461 7.40097 12.53 7.46997L15.53 10.47Z" fill="currentColor"/>
</svg>

<svg xmlns="http://www.w3.org/2000/svg" width="24" height="24" fill="none"><path fill="currentColor" d="M12 1.25C6.072 1.25 1.25 6.072 1.25 12S6.072 22.75 12 22.75 22.75 17.928 22.75 12 17.928 1.25 12 1.25Zm0 20c-5.101 0-9.25-4.149-9.25-9.25S6.899 2.75 12 2.75s9.25 4.149 9.25 9.25-4.149 9.25-9.25 9.25Zm3.53-10.78a.75.75 0 0 1-1.06 1.061l-1.72-1.72V16a.75.75 0 0 1-1.5 0V9.811l-1.72 1.72a.75.75 0 0 1-1.061-1.061l3-3a.748.748 0 0 1 .817-.162.749.749 0 0 1 .244.162l3 3Z"/></svg>
